X: 2341
T: Greenwich Hill
%R: march, polka
B: Niel Gow & Sons "A Second Collection of Strathspey Reels, etc." v.2 p.34 #1
Z: 2022 John Chambers <jc:trillian.mit.edu>
M: 2/4
L: 1/16
K: C
% - - - - - - - - - -
V: 1 staves=2
|:\
Tg3ec2c2 | BcdB c2G2 | cdec defd | egfe {e}d4 ||\
Tg3ec2c2 | BcdB c2G2 | cdec defd | e2Td2 c4 :|
|:\
C2C2 C2EC | D2D2 D2FD | C2C2 TC2EC | D2EF E2C2 ::\
!p!c2c2 Tc2GE | Tc2ec ~d2fd | c2c2 Tc2GE | D2EF E2C2 :|
% - - - - - - - - - -
% Voice 2 preserves the staff layout in the book.
V: 2 clef=bass middle=d
|: c'4 c4 | g2G2 c4 | e2c2g2b2 | c'2c2 g4 || c4 c'4 | g2G2 c4 | e2c2 g2b2 | c'2g2 c4 :|
|: c4 c4 | g4 g4 | c4 c4 | g2G2 c4 :: !p!c4 c4 | e4 g4 | c'4 c4 | g2G2 c4 :|
